X: 3659
T:Paddy Fahy's No.3
S:Fisherstreet
M:6/8
L:1/8
K:G
cBA EAB|cBA aed|cBA ~g2g|dBG Bcd|!
cBA EAB|cBA ~a2g|~f2f gfe|dBG Bcd:|!
|:cBA ~a2a|Ace aed|cBA ~g2g|dBG Bcd|!
cBA ~a2a|Ace ~a2g|~f2f gfe|dBG Bcd:|!
